X: 41210
T: Trolley's
R: reel
M: 4/4
K: Amajor
ABGA F3 E|CFAc dcB(c|c)AGA F2 FE|DFAc BEGB|
ABGA FccB|c2 ec B2 Bc|dFBd cEAc|1 BAGA F3 A:|2 BAGA Fefg||
|:affe f3 c|dfab gefg|affe dad(e|e)BfB gBab|affe f3B|
c2cA FFAc|1 dFBd eAce|fAdf gBeg:|2 dFBd cEAc|BAGA F3 A||

